X: 22056
T: Knockdhu
R: reel
M: 4/4
K: Aminor
A,2 ED CA,A,G,|A,CEG A2 E^F|G2 BG cGBG|DEGD EDB,G,|
A,2 ED CA,A,G,|A,CEG A2 E^F|G2 BG cGBG|1 DEGG, B,A,A,G,:|2 DEGA BAGB||
|:A2 aA gAaA|e2 ed cAAB|G2 BG cGBG|DEGA BAGB|
A2 aA gAaA|e2 ed cAAB|G2 BG cGBG|DEGG, B,A,A,[GG,]:|

